X:1
T:New Year, 65.65
T:New Year, 65.65
T:Josiah Booth, 1892
T:Public Domain Courtesy of the Cyber Hymnal™
C:Josiah Booth, 1892
Z:Public Domain
Z:Courtesy of the Cyber Hymnal™
%%score ( 1 2 ) ( 3 4 )
L:1/8
Q:1/4=108
M:4/4
K:Ab
V:1 treble 
V:2 treble 
V:3 bass 
V:4 bass 
V:1
 [Ac]2 [Ac]2 [Ae]2 [Af]2 | e4 [Ac]4 | [EA]2 [FA]2 [Ec]2 [Fd]2 | [EB]8 | [Ec]2 [EA]2 [DF]2 [DE]2 | %5
 [CA]4 [EB]4 x2 | [Ec]2 [Ee]2 [Ge]2 [EG]2 | [EA]8 |] %8
V:2
 x8 | (A2 G2) x4 | x8 | x8 | x8 | x10 | x8 | x8 |] %8
V:3
 [A,E]2 [A,E]2 [A,C]2 [D,D]2 | (B,2 E2) [A,E]4 | [A,C]2 [F,C]2 A,2 [D,A,]2 | [E,G,]8 | %4
 [A,,A,]2 [C,A,]2 [D,A,]2 [E,G,]2 | A,6 (z2 G,2) | [A,,A,]2 [C,A,]2 [E,B,]2 [E,D]2 | [A,,C]8 |] %8
V:4
 x8 | E,4 x4 | x4 A,2 x2 | x8 | x8 | F,4 E,4 x2 | x8 | x8 |] %8

